X:5
T:The Barge Inn
R:reel
C:Paddy O'Brien
O:20th Century Irish
S:Silver Apple News, 2004
D:John Carty, Yeh, That's All it Is
N:Alternate settings at http://www.cranfordpub.com/tunes/abcs/ClareFM.abc
B:The Compositions pf Paddy O'Brien
Z:Paul Stewart Cranford (P.S.C.), <http://www.cranfordpub.com>
N:simplified Carty setting - John Carty's recording contains variation-after-variation
Q:333
L:1/8
M:C|
K:Ddor
GFDF GFAF|GFDC A,EGE|FDCD FGAG|FGAc dAcA|
GFDF GFAF|GFDC A,EGE|FDCD FGAd|dcAF DEFD||
||G2 AG dGAG|G/G/G AG dGAG|FcAG FDCD|FGAc dAcA|
G3 c dccA|GcAc d2 cA|F2 DE FGAd|dcAF DEFD|]
